!!!!SEGMENT: pl-wtm--r-258-m--001_moniuszko-stanislaw--msza-kyrie.krn
!!!cenid: 18xx:2535
!!!COM: Moniuszko, Stanisław
!!!COM-rismID: pe30008351
!!!CDT: 1819/05/05-1872/06/04
!!!CNT: Polish
!!!OPR: Msza
!!!OTL: Kyrie
!!!OMV: 001
!!!PDT: 1870
!!!AGN: Sacred; Mass
!!!SMS-siglum: PL-Wtm
!!!SMS-shelfmark: R 258/M
!!!SMS-shelfwork: 001-001 M
!!!SMS-variant:
!!!SMS-altvar:
!!!NIFC-rismSourceID: 1001095348
!!!NIFC-rismChildID: 1001095348
!!!NIFC-islandoraID:
!!!URL-pdf-islandora:
!!!URL-scan:
!!!ONB-nifc: UWAGA: części Mszy: 1. Kyrie, 2. Et in terra, 3. Graduale, 4. Credo, 5. Offertorium
!!!AIN: 1 alto 1 bass 1 empty 1 soprn 1 tenor
!!!key:
**kern	**kern	**dynam	**kern	**text	**dynam	**kern	**text	**dynam	**kern	**text	**dynam	**kern	**text	**dynam
*part5	*part5	*part5	*part4	*part4	*part4	*part3	*part3	*part3	*part2	*part2	*part2	*part1	*part1	*part1
*staff6	*staff5	*	*staff4	*staff4	*	*staff3	*staff3	*	*staff2	*staff2	*	*staff1	*staff1	*
*Iempty	*Iorgan	*	*Ibass	*	*	*Itenor	*	*	*Ialto	*	*	*Isoprn	*	*
*	*I"Organo	*	*I"Basso	*	*	*I"Tenore	*	*	*I"Alto	*	*	*I"Soprano	*	*
*	*I'org	*	*I'B	*	*	*I'T	*	*	*I'A	*	*	*I'S	*	*
*clefF4	*clefG2	*	*clefF4	*	*	*clefG2v2	*	*	*clefG2	*	*	*clefG2	*	*
*k[b-e-a-d-g-]	*k[b-e-a-d-g-]	*	*k[b-e-a-d-g-]	*	*	*k[b-e-a-d-g-]	*	*	*k[b-e-a-d-g-]	*	*	*k[b-e-a-d-g-]	*	*
*D-:	*D-:	*	*D-:	*	*	*D-:	*	*	*D-:	*	*	*D-:	*	*
*M4/4	*M4/4	*	*M4/4	*	*	*M4/4	*	*	*M4/4	*	*	*M4/4	*	*
*met(c)	*met(c)	*	*met(c)	*	*	*met(c)	*	*	*met(c)	*	*	*met(c)	*	*
=1	=1	=1	=1	=1	=1	=1	=1	=1	=1	=1	=1	=1	=1	=1
*^	*	*	*	*	*	*	*	*	*	*	*	*	*	*
!!LO:TX:a:t=P:problem:all\right:global
!	!	!	!	!	!	!	!LO:TX:t=P:problem=w źrodle brak przenośnika oktawowego dla partii Tenore	!	!	!	!	!	!	!	!
!	!	!	!	!	!	!	!LO:TX:a:Bi:t=Solo.	!	!	!	!	!	!	!	!
1D-	1r	[1f 1d-	.	1r	.	.	2d-\	Ky-	.	1r	.	.	1r	.	.
.	.	.	.	.	.	.	4d-\	-rie	.	.	.	.	.	.	.
.	.	.	.	.	.	.	4d-\	e-	.	.	.	.	.	.	.
=2	=2	=2	=2	=2	=2	=2	=2	=2	=2	=2	=2	=2	=2	=2	=2
1D-	1r	1a- 1f] 1c	.	1r	.	.	2c\	-lei-	.	1r	.	.	1r	.	.
.	.	.	.	.	.	.	2c\	-son	.	.	.	.	.	.	.
=3	=3	=3	=3	=3	=3	=3	=3	=3	=3	=3	=3	=3	=3	=3	=3
*	*	*^	*	*	*	*	*	*	*	*	*	*	*	*	*
1D-	1r	2.g- 2.e-/	2B-\	.	1r	.	.	2B-\	Chri-	.	1r	.	.	1r	.	.
.	.	.	4c\	.	.	.	.	4c\	-ste	.	.	.	.	.	.	.
.	.	4b- 4g-/	4d-\	.	.	.	.	4d-\	e-	.	.	.	.	.	.	.
=4	=4	=4	=4	=4	=4	=4	=4	=4	=4	=4	=4	=4	=4	=4	=4	=4
1D-	1r	2.a-/	4.c\	.	1r	.	.	4.c\	-le-	.	1r	.	.	1r	.	.
.	.	.	8B-\	.	.	.	.	8B-\	-i-	.	.	.	.	.	.	.
.	.	.	2A-\	.	.	.	.	4A-/	-son	.	.	.	.	.	.	.
.	.	4a-/	.	.	.	.	.	4r	.	.	.	.	.	.	.	.
=5	=5	=5	=5	=5	=5	=5	=5	=5	=5	=5	=5	=5	=5	=5	=5	=5
*	*^	*	*	*	*	*	*	*	*	*	*	*	*	*	*	*
1D-	1r	2d-/	4a-/	2f\	.	1r	.	.	2f\	Ky-	.	1r	.	.	1r	.	.
.	.	.	4b-/	.	.	.	.	.	.	.	.	.	.	.	.	.	.
.	.	2A-/	8cc/L	8e-\L	.	.	.	.	8e-\L	-rie	.	.	.	.	.	.	.
.	.	.	8dd-/	8d-\	.	.	.	.	8d-\J	.	.	.	.	.	.	.	.
.	.	.	8ee-/	8c\	.	.	.	.	8c\L	e-	.	.	.	.	.	.	.
.	.	.	8dd-/J	8d-\J	.	.	.	.	8d-\J	.	.	.	.	.	.	.	.
=6	=6	=6	=6	=6	=6	=6	=6	=6	=6	=6	=6	=6	=6	=6	=6	=6	=6
1d- 1A-	1r	2D-\	2ff/	2a-\	.	1r	.	.	2.d-\	-le-	.	1r	.	.	1r	.	.
.	.	2F\	4dd-/	2f\	.	.	.	.	.	.	.	.	.	.	.	.	.
.	.	.	8a-/L	.	.	.	.	.	4A-/	-i-	.	.	.	.	.	.	.
.	.	.	8f/J	.	.	.	.	.	.	.	.	.	.	.	.	.	.
*	*	*	*v	*v	*	*	*	*	*	*	*	*	*	*	*	*	*
=7	=7	=7	=7	=7	=7	=7	=7	=7	=7	=7	=7	=7	=7	=7	=7	=7
!	!	!	!LO:TX:a:t=P:problem=cross-staff slur	!	!	!	!	!	!	!	!	!	!	!	!	!
2A-/	1r	1AA-	N(<2f 2d-/	.	1r	.	.	4F/	-son	.	1r	.	.	1r	.	.
.	.	.	.	.	.	.	.	8r	.	.	.	.	.	.	.	.
.	.	.	.	.	.	.	.	8F/	e-	.	.	.	.	.	.	.
4.A-/	.	.	2e- 2c/	.	.	.	.	4.A-/	-le-	.	.	.	.	.	.	.
8G-/	.	.	.	.	.	.	.	8G-/	-i-	.	.	.	.	.	.	.
=8	=8	=8	=8	=8	=8	=8	=8	=8	=8	=8	=8	=8	=8	=8	=8	=8
4.F/N)	1r	4.DD-/	2f 2d-/	.	1r	.	.	2F/	-son	.	1r	.	.	1r	.	.
8AA-/	.	8ryy	.	.	.	.	.	.	.	.	.	.	.	.	.	.
8D-/L	.	2ryy	2ryy	.	.	.	.	2r	.	.	.	.	.	.	.	.
16F/L	.	.	.	.	.	.	.	.	.	.	.	.	.	.	.	.
16A-/JJ	.	.	.	.	.	.	.	.	.	.	.	.	.	.	.	.
8d->\L	.	.	.	.	.	.	.	.	.	.	.	.	.	.	.	.
8f>\J	.	.	.	.	.	.	.	.	.	.	.	.	.	.	.	.
!!LO:LB:g=original
*	*v	*v	*	*	*	*	*	*	*	*	*	*	*	*	*	*
*v	*v	*	*	*	*	*	*	*	*	*	*	*	*	*	*
=9	=9	=9	=9	=9	=9	=9	=9	=9	=9	=9	=9	=9	=9	=9
*	*^	*	*	*	*	*	*	*	*	*	*	*	*	*
*ped	*	*	*	*	*	*	*	*	*	*	*	*	*	*	*
!	!	!	!	!	!	!	!LO:TX:a:Bi:t=tutti	!	!	!	!	!	!	!	!
!	!	!	!	!	!	!	!	!	!LO:DY:a	!	!	!LO:DY:a	!	!	!LO:DY:a
1AA-	1a-	4.e- 4.c\	.	2A-\	.	.	2c\	.	mf	2e-/	.	mf	2a-/	Ky-	mf
.	.	(8E-</	.	.	.	.	.	.	.	.	.	.	.	.	.
!	!LO:TX:t=P:problem=mixed beam	!	!	!	!	!	!	!	!	!	!	!	!	!	!
.	.	8A-<\L	.	4A-\	.	.	4c\	.	.	4e-/	.	.	4a-/	-rie	.
.	.	8e-\	.	.	.	.	.	.	.	.	.	.	.	.	.
.	.	8c\	.	4A-\	.	.	4c\	.	.	4a-/	.	.	4a-/	e-	.
.	.	8A-<\J)	.	.	.	.	.	.	.	.	.	.	.	.	.
=10	=10	=10	=10	=10	=10	=10	=10	=10	=10	=10	=10	=10	=10	=10	=10
1AA-^	[2b- 2a- 2e-/	8r	.	2E-\	.	.	2e-\	.	.	2a-/	.	.	2b-/	-lei-	.
.	.	8BB-</L	.	.	.	.	.	.	.	.	.	.	.	.	.
.	.	8E-</	.	.	.	.	.	.	.	.	.	.	.	.	.
.	.	8B-</J	.	.	.	.	.	.	.	.	.	.	.	.	.
!	!LO:TX:t=P:problem=mixed beam	!	!	!	!	!	!	!	!	!	!	!	!	!	!
.	2b-] 2g-/	8d-\L	.	2E-\	.	.	2e-\	.	.	2gn/	.	.	2b-/	-son	.
.	.	8B-\	.	.	.	.	.	.	.	.	.	.	.	.	.
.	.	8e-\	.	.	.	.	.	.	.	.	.	.	.	.	.
.	.	[8E-\J	.	.	.	.	.	.	.	.	.	.	.	.	.
=11	=11	=11	=11	=11	=11	=11	=11	=11	=11	=11	=11	=11	=11	=11	=11
*^	*	*	*	*	*	*	*	*	*	*	*	*	*	*	*
8r	1AA-^	2cc 2a-/	2re]	.	2c\	.	.	2e-\	.	.	2a-/	.	.	2cc\	Chri-	.
8E-/L	.	.	.	.	.	.	.	.	.	.	.	.	.	.	.	.
8A-/	.	.	.	.	.	.	.	.	.	.	.	.	.	.	.	.
8c/J	.	.	.	.	.	.	.	.	.	.	.	.	.	.	.	.
4B-/	.	4dd-/	8b-\L	.	4B-\	.	.	4d-\	.	.	4b-/	.	.	4dd-\	-ste	.
.	.	.	8e-\J	.	.	.	.	.	.	.	.	.	.	.	.	.
8cL 8A-/	.	4ee-/	4cc 4a-\	.	8A-\L	.	.	8c\L	.	.	4cc\	.	.	4ee-\	e-	.
8B-J 8G-/	.	.	.	.	8G-\J	.	.	8B-\J	.	.	.	.	.	.	.	.
=12	=12	=12	=12	=12	=12	=12	=12	=12	=12	=12	=12	=12	=12	=12	=12	=12
*	*^	*	*	*	*	*	*	*	*	*	*	*	*	*	*	*
2A- 2F/	1AA-^	2rGGyy	2ee-/	8ccL 8a-\	.	2F\	lei-	.	2A-/	lei-	.	2cc\	lei-	.	([1ee-	-lei-	.
.	.	.	.	8e-\	.	.	.	.	.	.	.	.	.	.	.	.	.
.	.	.	.	8a-\	.	.	.	.	.	.	.	.	.	.	.	.	.
.	.	.	.	8cc\J	.	.	.	.	.	.	.	.	.	.	.	.	.
4.d-/	.	2Gn\	2ee-/	8b-\L	.	2Gn\	-son	.	2d-\	-son	.	2b-\	-son	.	.	.	.
.	.	.	.	8e-\J	.	.	.	.	.	.	.	.	.	.	.	.	.
.	.	.	.	4b-\	.	.	.	.	.	.	.	.	.	.	.	.	.
8B-/	.	.	.	.	.	.	.	.	.	.	.	.	.	.	.	.	.
*	*v	*v	*	*	*	*	*	*	*	*	*	*	*	*	*	*	*
=13	=13	=13	=13	=13	=13	=13	=13	=13	=13	=13	=13	=13	=13	=13	=13	=13
2c 2A-/	2AA-^\	2ee-/	8a-\L	.	(4A-\	Ky-	.	2c\	Ky-	.	(4a-/	Ky-	.	2ee-\]	.	.
.	.	.	8e-\	.	.	.	.	.	.	.	.	.	.	.	.	.
.	.	.	8cc\	.	4AA-/)	.	.	.	.	.	4e-/)	.	.	.	.	.
.	.	.	8a-\J	.	.	.	.	.	.	.	.	.	.	.	.	.
4B-/	4BB-\	4dd-/	8g-\L	.	4BB-/	-ri-	.	4B-\	-rie	.	4g-/	-ri-	.	4dd-\	.	.
.	.	.	8e-\	.	.	.	.	.	.	.	.	.	.	.	.	.
4A-/	4C\	4cc/	8a-\	.	4C/	-e	.	4e-\	e-	.	4a-/	-e	.	4cc\)	-son	.
.	.	.	8e-\J	.	.	.	.	.	.	.	.	.	.	.	.	.
=14	=14	=14	=14	=14	=14	=14	=14	=14	=14	=14	=14	=14	=14	=14	=14	=14
2A-/	1D-	4cc/	8f\L	.	2D-/	Ky-	.	(4e-\	-lei-	.	[1f	Ky-	.	(4cc\	Ky-	.
.	.	.	8e-\	.	.	.	.	.	.	.	.	.	.	.	.	.
.	.	4b-/	8d-\	.	.	.	.	4d-\)	.	.	.	.	.	4b-\)	.	.
.	.	.	8f\J	.	.	.	.	.	.	.	.	.	.	.	.	.
4B-/	.	8f'/L	2rgyy	.	4D-/	-rie	.	(4B-\	-son	.	.	.	.	4f/	ri-	.
.	.	(8f/	.	.	.	.	.	.	.	.	.	.	.	.	.	.
4Bn/	.	8g-/)	.	.	4D-/	e-	.	4B\)	.	.	.	.	.	4g-/	-e	.
.	.	(8g-J 8f/	.	.	.	.	.	.	.	.	.	.	.	.	.	.
*	*	*v	*v	*	*	*	*	*	*	*	*	*	*	*	*	*
=15	=15	=15	=15	=15	=15	=15	=15	=15	=15	=15	=15	=15	=15	=15	=15
4c/	1C	8a-L 8f/)	.	(1C	-lei-	.	4c\	Ky-	.	4f/]	.	.	4a-/	Ky-	.
.	.	8en/	.	.	.	.	.	.	.	.	.	.	.	.	.
4A-/	.	8a- 8f/	.	.	.	.	4A-/	-ri-	.	4f/	-ri-	.	4a-/	-ri-	.
.	.	8c/J	.	.	.	.	.	.	.	.	.	.	.	.	.
4F/	.	8ccL 8a-/	.	.	.	.	4F/	-e	.	4a-/	-e	.	4cc\	-e	.
.	.	8c/	.	.	.	.	.	.	.	.	.	.	.	.	.
8G-/L	.	8b- 8g-/	.	.	.	.	8G-/L	e-	.	8g-/L	e-	.	8b-/L	e-	.
8A-/J	.	8a-J 8f/	.	.	.	.	8A-/J	.	.	8f/J	.	.	8a-/J	.	.
*v	*v	*	*	*	*	*	*	*	*	*	*	*	*	*	*
=16	=16	=16	=16	=16	=16	=16	=16	=16	=16	=16	=16	=16	=16	=16
*	*^	*	*	*	*	*	*	*	*	*	*	*	*	*
1C-X^	8a-/L	2f-X\	.	2C-X/)	.	.	2.A-/	-lei-	.	2f-X/	-lei-	.	2.a-/	-lei-	.
.	8A-/	.	.	.	.	.	.	.	.	.	.	.	.	.	.
.	8a-/	.	.	.	.	.	.	.	.	.	.	.	.	.	.
.	8A-/J	.	.	.	.	.	.	.	.	.	.	.	.	.	.
.	8r	2e-X\	.	2C-/	-son	.	.	.	.	2e-/	-son	.	.	.	.
.	8A-/L	.	.	.	.	.	.	.	.	.	.	.	.	.	.
.	8a-/	.	.	.	.	.	4A-/	-son	.	.	.	.	4a-/	-son	.
.	8A-/J	.	.	.	.	.	.	.	.	.	.	.	.	.	.
!!LO:PB:g=original
=17	=17	=17	=17	=17	=17	=17	=17	=17	=17	=17	=17	=17	=17	=17	=17
2BB-\	8r	2dn 2B-\	.	2BB-/	.	.	2B-\	.	.	2dn/	.	.	2a-/	Ky-	.
.	8A-/L	.	.	.	.	.	.	.	.	.	.	.	.	.	.
.	8a-/	.	.	.	.	.	.	.	.	.	.	.	.	.	.
.	8A-/J	.	.	.	.	.	.	.	.	.	.	.	.	.	.
2F-X\	8r	2d-X\	.	4F-X\	.	.	4B-\	.	.	4d-X/	.	.	4a-/	-rie	.
.	8A-/L	.	.	.	.	.	.	.	.	.	.	.	.	.	.
.	8a-/	.	.	4F-\	.	.	4B-\	.	.	4d-/	.	.	4a-/	e-	.
.	8A-/J	.	.	.	.	.	.	.	.	.	.	.	.	.	.
=18	=18	=18	=18	=18	=18	=18	=18	=18	=18	=18	=18	=18	=18	=18	=18
*^	*	*	*	*	*	*	*	*	*	*	*	*	*	*	*
2Gn/	2E-\	2b-/	8d-X\L	.	2E-\	.	.	2.G/	.	.	2d-X/	.	.	2b-\	-lei-	.
.	.	.	8e-\	.	.	.	.	.	.	.	.	.	.	.	.	.
.	.	.	8f\	.	.	.	.	.	.	.	.	.	.	.	.	.
.	.	.	8e-\J	.	.	.	.	.	.	.	.	.	.	.	.	.
2E-/	2GGn\	2bn/	8d-\L	.	2GGn/	.	.	.	.	.	2d-/	.	.	2bn\	-son	.
.	.	.	8e-\	.	.	.	.	.	.	.	.	.	.	.	.	.
.	.	.	8f\	.	.	.	.	4e-\	.	.	.	.	.	.	.	.
.	.	.	8e-\J	.	.	.	.	.	.	.	.	.	.	.	.	.
=19	=19	=19	=19	=19	=19	=19	=19	=19	=19	=19	=19	=19	=19	=19	=19	=19
4E-/	2AA-\	2cc/	8f\L	.	2AA-/	.	.	(4f\	.	.	(4c/	.	.	2cc\	Chri-	.
.	.	.	8c\	.	.	.	.	.	.	.	.	.	.	.	.	.
8A-/L	.	.	8e-\	.	.	.	.	4e-\)	.	.	4e-/)	.	.	.	.	.
8c/J	.	.	8a-\J	.	.	.	.	.	.	.	.	.	.	.	.	.
8d-/L	4BB-\	4dd-/	2a-\	.	4BB-/	.	.	4d-\	.	.	4a-/	.	.	4dd-\	-ste	.
8A-/	.	.	.	.	.	.	.	.	.	.	.	.	.	.	.	.
8c/	4C\	4ee-/	.	.	4C/	.	.	4c\	.	.	4a-/	.	.	4ee-\	e-	.
8A-/J	.	.	.	.	.	.	.	.	.	.	.	.	.	.	.	.
=20	=20	=20	=20	=20	=20	=20	=20	=20	=20	=20	=20	=20	=20	=20	=20	=20
2.B-/	4D-\	1ee-	8f\L	.	(4D-\	.	.	2.B-\	.	.	(4f/	.	.	2.ee-\	-lei-	.
.	.	.	8a-\	.	.	.	.	.	.	.	.	.	.	.	.	.
.	4E-\	.	8gn\	.	4E-\	.	.	.	.	.	4gn/	.	.	.	.	.
.	.	.	8e-\J	.	.	.	.	.	.	.	.	.	.	.	.	.
.	4F\	.	8a-\L	.	4F\)	.	.	.	.	.	4a-/)	.	.	.	.	.
.	.	.	8e-\	.	.	.	.	.	.	.	.	.	.	.	.	.
4d-/	4Gn\	.	8b-\	.	4Gn\	.	.	4d-\	.	.	4b-/	.	.	4ee-\	-son	.
.	.	.	8e-\J	.	.	.	.	.	.	.	.	.	.	.	.	.
=21	=21	=21	=21	=21	=21	=21	=21	=21	=21	=21	=21	=21	=21	=21	=21	=21
2c/	2A-\	2ee-/	8a-\L	.	2A-\	Ky-	.	(2c\	Ky-	.	(4a-/	Ky-	.	2ee-\	Ky-	.
.	.	.	8e-\	.	.	.	.	.	.	.	.	.	.	.	.	.
.	.	.	8gn\	.	.	.	.	.	.	.	4gn/)	.	.	.	.	.
.	.	.	8a-\J	.	.	.	.	.	.	.	.	.	.	.	.	.
2A-/	2AA-\	4dd-/	8f\L	.	2AA-/	-ri-	.	2A-/	.	.	4f/	-rie	.	4dd-\	-rie	.
.	.	.	8a-\	.	.	.	.	.	.	.	.	.	.	.	.	.
.	.	4cc/	8e-\	.	.	.	.	.	.	.	4e-/	e-	.	4cc\	e-	.
.	.	.	8f\J	.	.	.	.	.	.	.	.	.	.	.	.	.
*v	*v	*	*	*	*	*	*	*	*	*	*	*	*	*	*	*
=22	=22	=22	=22	=22	=22	=22	=22	=22	=22	=22	=22	=22	=22	=22	=22
1F 1BB-	4cc/	8e-\L	.	2.BB-/	-e	.	4.F/)	.	.	4e-/	-lei-	.	(4cc\	-lei-	.
.	.	8f\	.	.	.	.	.	.	.	.	.	.	.	.	.
.	4b-/	8d-\	.	.	.	.	.	.	.	4d-/	-son	.	4b-\)	.	.
.	.	8f\J	.	.	.	.	8B-\	-ri-	.	.	.	.	.	.	.
.	4f/	8d-\L	.	.	.	.	4d-\	-e	.	4r	.	.	4f/	-son	.
.	.	8B-\	.	.	.	.	.	.	.	.	.	.	.	.	.
.	4gn/	8f 8d-\	.	4BB-/	e-	.	4f\	e-	.	4f/	e-	.	4gn/	e-	.
.	.	8f\J	.	.	.	.	.	.	.	.	.	.	.	.	.
=23	=23	=23	=23	=23	=23	=23	=23	=23	=23	=23	=23	=23	=23	=23	=23
2C\	4.a-/	8f\L	.	(2C/	-lei-	.	(2f\	-lei-	.	[1f	-lei-	.	(2a-/	-lei-	.
.	.	8c\J	.	.	.	.	.	.	.	.	.	.	.	.	.
.	.	4f\	.	.	.	.	.	.	.	.	.	.	.	.	.
.	8a-/	.	.	.	.	.	.	.	.	.	.	.	.	.	.
2C-X\	4.an/	8e-\L	.	2C-X/	.	.	[2e-\)	.	.	.	.	.	2an/	.	.
.	.	8f\J	.	.	.	.	.	.	.	.	.	.	.	.	.
.	.	[4e-\	.	.	.	.	.	.	.	.	.	.	.	.	.
.	8a/	.	.	.	.	.	.	.	.	.	.	.	.	.	.
=24	=24	=24	=24	=24	=24	=24	=24	=24	=24	=24	=24	=24	=24	=24	=24
2BB-\	4.b-/	8e-\L]	.	2BB-/)	.	.	2e-\]	.	.	2f/]	.	.	2b-\)	.	.
.	.	8f\J	.	.	.	.	.	.	.	.	.	.	.	.	.
.	.	4e-\	.	.	.	.	.	.	.	.	.	.	.	.	.
.	8b-/	.	.	.	.	.	.	.	.	.	.	.	.	.	.
2AA-\	2cc/	8a-\L	.	4AA-/	-son	.	2e-\	-son	.	4a-/	-son.	.	2cc\	-son	.
.	.	8e-\	.	.	.	.	.	.	.	.	.	.	.	.	.
.	.	8g-X\	.	4r	.	.	.	.	.	4r	.	.	.	.	.
.	.	8e-\J	.	.	.	.	.	.	.	.	.	.	.	.	.
!!LO:LB:g=original
=25	=25	=25	=25	=25	=25	=25	=25	=25	=25	=25	=25	=25	=25	=25	=25
*^	*	*	*	*	*	*	*	*	*	*	*	*	*	*	*
2r	1DD-	1dd-	8f\L	.	1r	.	.	4.f\	Ky-	.	2r	.	.	2dd-\	Ky-	.
.	.	.	8a- 8f\	.	.	.	.	.	.	.	.	.	.	.	.	.
.	.	.	8f\	.	.	.	.	.	.	.	.	.	.	.	.	.
.	.	.	8e-\J	.	.	.	.	8e-\	-ri-	.	.	.	.	.	.	.
8r	.	.	[2d-\	.	.	.	.	4d-\	-e	.	4r	.	.	4dd-\	-rie	.
8A-/L	.	.	.	.	.	.	.	.	.	.	.	.	.	.	.	.
8F/	.	.	.	.	.	.	.	4F/	e-	.	4d-/	e-	.	4dd-\	e-	.
8A-/J	.	.	.	.	.	.	.	.	.	.	.	.	.	.	.	.
=26	=26	=26	=26	=26	=26	=26	=26	=26	=26	=26	=26	=26	=26	=26	=26	=26
2.A-/	4.F\	1cc	8d-\L]	.	4.F\	Ky-	.	(1A-	-lei-	.	[1d-	-lei-	.	2.cc\	-lei-	.
.	.	.	8f\	.	.	.	.	.	.	.	.	.	.	.	.	.
.	.	.	8a-\	.	.	.	.	.	.	.	.	.	.	.	.	.
.	8E-\	.	8g-\J	.	8E-\	-ri-	.	.	.	.	.	.	.	.	.	.
.	4D-\	.	8f\L	.	4D-\	-e	.	.	.	.	.	.	.	.	.	.
.	.	.	8a-\J	.	.	.	.	.	.	.	.	.	.	.	.	.
8F/L	4FF\	.	4d-\	.	4F\	e-	.	.	.	.	.	.	.	4cc\	-son	.
8A-/J	.	.	.	.	.	.	.	.	.	.	.	.	.	.	.	.
=27	=27	=27	=27	=27	=27	=27	=27	=27	=27	=27	=27	=27	=27	=27	=27	=27
8G-/L	4.GG-\	2b-/	2d-/	.	(4.G-\	-lei-	.	2B-/)	.	.	2d-/]	.	.	2b-\	Chri-	.
8E-/	.	.	.	.	.	.	.	.	.	.	.	.	.	.	.	.
8G-/	.	.	.	.	.	.	.	.	.	.	.	.	.	.	.	.
8F/J	8FF\	.	.	.	8F\)	.	.	.	.	.	.	.	.	.	.	.
4B- 4E-/	4EE-\	4cc/	8g-\L	.	4E-\	-son	.	4A-/	-son	.	4g-/	-son	.	4cc\	-ste	.
.	.	.	8a-\	.	.	.	.	.	.	.	.	.	.	.	.	.
4A- 4D-/	4DD-\	4dd-/	8f\	.	4D-\	e-	.	4A-/	e-	.	4f/	e-	.	4dd-\	e-	.
.	.	.	8d-\J	.	.	.	.	.	.	.	.	.	.	.	.	.
*	*	*v	*v	*	*	*	*	*	*	*	*	*	*	*	*	*
=28	=28	=28	=28	=28	=28	=28	=28	=28	=28	=28	=28	=28	=28	=28	=28
8C/L	4CC\	2ee- 2a-/	.	(4C/	-lei-	.	2c\	.	.	2a-/	-lei-	.	2ee-\	-lei-	.
8E-/	.	.	.	.	.	.	.	.	.	.	.	.	.	.	.
8A-/	4C\	.	.	4c\)	.	.	.	.	.	.	.	.	.	.	.
8c/J	.	.	.	.	.	.	.	.	.	.	.	.	.	.	.
8B-/L	2BB-\	2een 2g-X/	.	2B-\	-son	.	2d-\	.	.	2g-X/	-son	.	2een\	-son	.
8c/	.	.	.	.	.	.	.	.	.	.	.	.	.	.	.
8d-/	.	.	.	.	.	.	.	.	.	.	.	.	.	.	.
8B-/J	.	.	.	.	.	.	.	.	.	.	.	.	.	.	.
=29	=29	=29	=29	=29	=29	=29	=29	=29	=29	=29	=29	=29	=29	=29	=29
*	*	*^	*	*	*	*	*	*	*	*	*	*	*	*	*
2c 2An/	2AAn\	(8ff/L	2ryy	.	2An\	.	.	2c\	.	.	2f/	Ky-	.	4.ff\	Ky-	.
.	.	8f/	.	.	.	.	.	.	.	.	.	.	.	.	.	.
.	.	8cc/	.	.	.	.	.	.	.	.	.	.	.	.	.	.
.	.	8ee-X/J)	.	.	.	.	.	.	.	.	.	.	.	8ee-X\	-ri-	.
2B-/	2BB-\	(8ee-/L	2f\	.	4B-\	.	.	4B-\	.	.	4f/	-rie	.	8ee-\L	-e	.
.	.	8dd-/	.	.	.	.	.	.	.	.	.	.	.	8dd-\J	.	.
.	.	8cc/	.	.	4B-\	.	.	4B-\	.	.	4f/	e-	.	8cc\L	e-	.
.	.	8dd-/J)	.	.	.	.	.	.	.	.	.	.	.	8dd-\J	.	.
=30	=30	=30	=30	=30	=30	=30	=30	=30	=30	=30	=30	=30	=30	=30	=30	=30
4A- 4F/	4FF\	2dd-/	(8a-\L	.	(4F\	.	.	(4c\	-lei	.	(4a-/	-lei-	.	(2dd-\	-le-	.
.	.	.	8d-\	.	.	.	.	.	.	.	.	.	.	.	.	.
2B- 2G-/	2GG-\	.	8g-\	.	4G-\)	.	.	4B-\)	.	.	4g-/	.	.	.	.	.
.	.	.	8d-\J)	.	.	.	.	.	.	.	.	.	.	.	.	.
.	.	8cc/L	2ryy	.	4GG-/	.	.	4G-/	.	.	4e-/)	-son,	.	8cc\L	.	.
.	.	8b-/	.	.	.	.	.	.	.	.	.	.	.	8b-\J)	.	.
4B- 4G-/	4FF\	8d-/	.	.	4GG-/	.	.	4G-/	.	.	4B-/	e-	.	8d-/L	-i-	.
.	.	8e-/J	.	.	.	.	.	.	.	.	.	.	.	8e-/J	.	.
=31	=31	=31	=31	=31	=31	=31	=31	=31	=31	=31	=31	=31	=31	=31	=31	=31
4A-/	1AA-	8f/L	8ryy	.	1AA-	.	.	2F/	.	.	2.d-/	-le-	.	4f/	-son	.
.	.	8d-/	[4.d-\	.	.	.	.	.	.	.	.	.	.	.	.	.
4F/	.	8b-/	.	.	.	.	.	.	.	.	.	.	.	8b-/L	e-	.
.	.	8a-/J	.	.	.	.	.	.	.	.	.	.	.	8a-/J	.	.
2G- 2E-/	.	2a-/	4d-\]	.	.	.	.	2E-/	.	.	.	.	.	2a-/	-lei-	.
.	.	.	4c\	.	.	.	.	.	.	.	4c/	-i-	.	.	.	.
*	*	*v	*v	*	*	*	*	*	*	*	*	*	*	*	*	*
=32	=32	=32	=32	=32	=32	=32	=32	=32	=32	=32	=32	=32	=32	=32	=32
*	*^	*	*	*	*	*	*	*	*	*	*	*	*	*	*
8F/L	1D- 1DD-	2ryy	(8d-/L	.	2D-\	.	.	2F/	.	.	2d-/	-son	.	2d-/	-son	.
8AA-/	.	.	8A-/	.	.	.	.	.	.	.	.	.	.	.	.	.
8D-/	.	.	8d-/	.	.	.	.	.	.	.	.	.	.	.	.	.
8F/J	.	.	8f/J	.	.	.	.	.	.	.	.	.	.	.	.	.
!LO:TX:t=P:problem=mixed beam	!	!	!	!	!	!	!	!	!	!	!	!	!	!	!	!
8A-/L	.	4ryy	4a-/)	.	4r	.	.	4r	.	.	4r	.	.	4r	.	.
8d-/	.	.	.	.	.	.	.	.	.	.	.	.	.	.	.	.
!	!	!	!	!	!	!	!LO:DY:a	!	!	!LO:DY:a	!	!	!LO:DY:a	!	!	!LO:DY:a
8f/	.	4A- 4D-\	4dd- 4a-/	.	4D-\	.	f	4d-\	.	f	4f/	.	f	4dd-\	e-	f
8d-/J	.	.	.	.	.	.	.	.	.	.	.	.	.	.	.	.
!!LO:PB:g=original
*	*v	*v	*	*	*	*	*	*	*	*	*	*	*	*	*	*
=33	=33	=33	=33	=33	=33	=33	=33	=33	=33	=33	=33	=33	=33	=33	=33
*	*	*^	*	*	*	*	*	*	*	*	*	*	*	*	*
4c 4A-/	1D- 1DD-^	2.ee- 2.a-/	2ryy	.	2.A-\	.	.	2.c^\	.	.	2.g-^/	.	.	2.ee-^\	-le-	.
4ryy	.	.	.	.	.	.	.	.	.	.	.	.	.	.	.	.
2ryy	.	.	4g-\	.	.	.	.	.	.	.	.	.	.	.	.	.
.	.	4dd- 4a-/	4f\	.	4A-\	.	.	4d-\	.	.	4f/	.	.	4dd-\	-i-	.
=34	=34	=34	=34	=34	=34	=34	=34	=34	=34	=34	=34	=34	=34	=34	=34	=34
!	!	!LO:TX:t=P:problem=mixed beam	!	!	!	!	!	!	!	!	!	!	!	!	!	!
4c 4A-/	1D- 1DD-^	2.ee- 2.a-/	8g-\L	.	2.A-\	.	.	2.c^\	.	.	2.g-^/	.	.	2.ee-^\	-son	.
.	.	.	8e-\	.	.	.	.	.	.	.	.	.	.	.	.	.
4ryy	.	.	8c\	.	.	.	.	.	.	.	.	.	.	.	.	.
.	.	.	8A-\J	.	.	.	.	.	.	.	.	.	.	.	.	.
2ryy	.	.	8E-/L	.	.	.	.	.	.	.	.	.	.	.	.	.
.	.	.	8A-/	.	.	.	.	.	.	.	.	.	.	.	.	.
.	.	4dd- 4a- 4f/	8d- 8F/	.	4B-\	.	.	4d-\	.	.	4f/	.	.	4dd-\	e-	.
.	.	.	8A-/J	.	.	.	.	.	.	.	.	.	.	.	.	.
=35	=35	=35	=35	=35	=35	=35	=35	=35	=35	=35	=35	=35	=35	=35	=35	=35
(2c 2A-/	1D- 1DD-^	(2ee-/	8g-\L	.	(2A-\	.	.	(2c\	.	.	2.g-/	.	.	(2ee-\	-le-	.
.	.	.	8e-\	.	.	.	.	.	.	.	.	.	.	.	.	.
.	.	.	8a-\	.	.	.	.	.	.	.	.	.	.	.	.	.
.	.	.	8g-\J	.	.	.	.	.	.	.	.	.	.	.	.	.
4d- 4B-/	.	4dd-/	8f\L	.	4B-\)	.	.	4d-\)	.	.	.	.	.	4dd-\)	.	.
.	.	.	8a-\	.	.	.	.	.	.	.	.	.	.	.	.	.
4B- 4G-/	.	4b-/	8g-\	.	4G-\	.	.	4d-\	.	.	4a-/	.	.	4b-\	-i-	.
.	.	.	8d-\J	.	.	.	.	.	.	.	.	.	.	.	.	.
=36	=36	=36	=36	=36	=36	=36	=36	=36	=36	=36	=36	=36	=36	=36	=36	=36
*	*^	*	*	*	*	*	*	*	*	*	*	*	*	*	*	*
!	!	!	!LO:TX:t=P:problem=mixed beam	!	!	!	!	!	!	!	!	!	!	!	!	!	!
4A- 4F/)	2.D-\	[1DD-^	1a-)	8f\L	p	2D-\	.	.	2d-\	.	.	2f/	.	.	2a-/	-son	.
.	.	.	.	8d-\	.	.	.	.	.	.	.	.	.	.	.	.	.
4r	.	.	.	8A-\	.	.	.	.	.	.	.	.	.	.	.	.	.
!	!	!	!	!	!LO:DY:a	!	!	!	!	!	!	!	!	!	!	!	!
.	.	.	.	8F\J	p	.	.	.	.	.	.	.	.	.	.	.	.
!	!	!	!LO:TX:t=P:problem=mixed beam	!	!	!	!	!	!	!	!	!	!	!	!	!	!
2r	.	.	.	8d-\L	.	4r	.	.	4r	.	.	4r	.	.	4r	.	.
.	.	.	.	8A-\	.	.	.	.	.	.	.	.	.	.	.	.	.
!	!	!	!	!	!	!	!	!LO:DY:a	!	!	!LO:DY:a	!	!	!LO:DY:a	!	!	!LO:DY:a
.	4ryy	.	.	8F\J	.	4D-\	.	p	4F/	.	p	4d-/	.	p	4d-/	e-	p
.	.	.	.	8D-/	.	.	.	.	.	.	.	.	.	.	.	.	.
*	*v	*v	*	*	*	*	*	*	*	*	*	*	*	*	*	*	*
=37	=37	=37	=37	=37	=37	=37	=37	=37	=37	=37	=37	=37	=37	=37	=37	=37
*	*	*	*^	*	*	*	*	*	*	*	*	*	*	*	*	*
!LO:TX:a:Bi:t=mg.	!	!LO:TX:a:Bi:t=md.	!	!	!	!	!	!	!	!	!	!	!	!	!	!	!
8AA-/L	1DD-]	(2.e-/	[1c-X	4G-X/	.	2.AA-/	.	.	2.G-/	.	.	[1c-X	.	.	2.e-/	-le-	.
8D-/J	.	.	.	.	.	.	.	.	.	.	.	.	.	.	.	.	.
4ryy	.	.	.	(8G-/L	.	.	.	.	.	.	.	.	.	.	.	.	.
.	.	.	.	8c-X/J	.	.	.	.	.	.	.	.	.	.	.	.	.
8r	.	.	.	8G-/)	.	.	.	.	.	.	.	.	.	.	.	.	.
8D-\L	.	.	.	8rD	.	.	.	.	.	.	.	.	.	.	.	.	.
8AA-\	.	4d- 4F/)	.	4ryy	.	4D-/	.	.	4F/	.	.	.	.	.	4d-/	-i-	.
8D-\J	.	.	.	.	.	.	.	.	.	.	.	.	.	.	.	.	.
=38	=38	=38	=38	=38	=38	=38	=38	=38	=38	=38	=38	=38	=38	=38	=38	=38	=38
8AA-/L	1DD-	(2.e-/	1c-_	4ryy	.	2.AA-/	.	.	2.G-/	.	.	1c-_	.	.	2.e-/	-son	.
8D-/J	.	.	.	.	.	.	.	.	.	.	.	.	.	.	.	.	.
4ryy	.	.	.	(8G-X/L	.	.	.	.	.	.	.	.	.	.	.	.	.
.	.	.	.	8c-X/J	.	.	.	.	.	.	.	.	.	.	.	.	.
8r	.	.	.	8G-/)	.	.	.	.	.	.	.	.	.	.	.	.	.
8D-\L	.	.	.	8rD	.	.	.	.	.	.	.	.	.	.	.	.	.
8AA-\	.	4d- 4F/)	.	4ryy	.	4D-/	.	.	4F/	.	.	.	.	.	4d-/	e-	.
8D-\J	.	.	.	.	.	.	.	.	.	.	.	.	.	.	.	.	.
*	*	*	*v	*v	*	*	*	*	*	*	*	*	*	*	*	*	*
=39	=39	=39	=39	=39	=39	=39	=39	=39	=39	=39	=39	=39	=39	=39	=39	=39
8r	2DD-\	2e- 2c-X/]	2G-X/	.	[2AA-/	.	.	1A-	.	.	(2c-/]	.	.	(2e-/	-le-	.
(8AA-/L	.	.	.	.	.	.	.	.	.	.	.	.	.	.	.	.
8D-/	.	.	.	.	.	.	.	.	.	.	.	.	.	.	.	.
8AA-/J)	.	.	.	.	.	.	.	.	.	.	.	.	.	.	.	.
8r	2DD-\	4..g- 4..cn/	2A-/	.	4..AA-/]	.	.	.	.	.	4..cn/)	.	.	4..g-/)	.	.
!LO:TX:t=P:problem=mixed beam	!	!	!	!	!	!	!	!	!	!	!	!	!	!	!	!
(8AA-/L	.	.	.	.	.	.	.	.	.	.	.	.	.	.	.	.
8E-/	.	.	.	.	.	.	.	.	.	.	.	.	.	.	.	.
8AA-/J)	.	.	.	.	.	.	.	.	.	.	.	.	.	.	.	.
.	.	16f 16d-/	.	.	16D-/	.	.	.	.	.	16d-/	.	.	16f/	-i-	.
*	*	*v	*v	*	*	*	*	*	*	*	*	*	*	*	*	*
=40	=40	=40	=40	=40	=40	=40	=40	=40	=40	=40	=40	=40	=40	=40	=40
8r	1DD-	([2f 2d- 2A-/	.	[1D-	.	.	[1A-	.	.	[1d-	.	.	[1f	-son.	.
(8AA-/L	.	.	.	.	.	.	.	.	.	.	.	.	.	.	.
8D-/	.	.	.	.	.	.	.	.	.	.	.	.	.	.	.
8F/J)	.	.	.	.	.	.	.	.	.	.	.	.	.	.	.
!	!	!LO:TX:a:t=1.	!	!	!	!	!	!	!	!	!	!	!	!	!
2d- 2A- 2F/	.	8f/L]	.	.	.	.	.	.	.	.	.	.	.	.	.
.	.	8a-/	.	.	.	.	.	.	.	.	.	.	.	.	.
.	.	8dd-/	.	.	.	.	.	.	.	.	.	.	.	.	.
.	.	8ff/J)	.	.	.	.	.	.	.	.	.	.	.	.	.
!!LO:LB:g=original
=41	=41	=41	=41	=41	=41	=41	=41	=41	=41	=41	=41	=41	=41	=41	=41
*	*	*^	*	*	*	*	*	*	*	*	*	*	*	*	*
8r	1DD-	[2aa-/	2.a-\	.	1D-_	.	.	1A-_	.	.	1d-_	.	.	1f_	.	.
(8AA-/L	.	.	.	.	.	.	.	.	.	.	.	.	.	.	.	.
8D-/	.	.	.	.	.	.	.	.	.	.	.	.	.	.	.	.
8F/J)	.	.	.	.	.	.	.	.	.	.	.	.	.	.	.	.
2d- 2A- 2F/	.	8aa-/L]	.	.	.	.	.	.	.	.	.	.	.	.	.	.
.	.	8ff/	.	.	.	.	.	.	.	.	.	.	.	.	.	.
.	.	8dd-/	4r	.	.	.	.	.	.	.	.	.	.	.	.	.
.	.	8a-/J	.	.	.	.	.	.	.	.	.	.	.	.	.	.
=42	=42	=42	=42	=42	=42	=42	=42	=42	=42	=42	=42	=42	=42	=42	=42	=42
8r	1DD-	[2ff/	2.f\	.	2D-\]	.	.	2A-/]	.	.	2d-/]	.	.	2f/]	.	.
(8AA-/L	.	.	.	.	.	.	.	.	.	.	.	.	.	.	.	.
8D-/	.	.	.	.	.	.	.	.	.	.	.	.	.	.	.	.
8F/J)	.	.	.	.	.	.	.	.	.	.	.	.	.	.	.	.
[2d- [2A- [2F/	.	8ff/L]	.	.	2r	.	.	2r	.	.	2r	.	.	2r	.	.
.	.	8ee-/	.	.	.	.	.	.	.	.	.	.	.	.	.	.
.	.	8dd-/	4r	.	.	.	.	.	.	.	.	.	.	.	.	.
.	.	8a-/J	.	.	.	.	.	.	.	.	.	.	.	.	.	.
*	*	*v	*v	*	*	*	*	*	*	*	*	*	*	*	*	*
=43	=43	=43	=43	=43	=43	=43	=43	=43	=43	=43	=43	=43	=43	=43	=43
8d-] 8A-] 8F/]	2DD-\	(8f/L	.	1r	.	.	1r	.	.	1r	.	.	1r	.	.
8r	.	8g-/	.	.	.	.	.	.	.	.	.	.	.	.	.
(8F/L	.	8a-/	.	.	.	.	.	.	.	.	.	.	.	.	.
8A-/J	.	8f/J	.	.	.	.	.	.	.	.	.	.	.	.	.
4F/)	4r	4d-/)	.	.	.	.	.	.	.	.	.	.	.	.	.
4F 4D-/	4DD-\	4A-/	.	.	.	.	.	.	.	.	.	.	.	.	.
=44	=44	=44	=44	=44	=44	=44	=44	=44	=44	=44	=44	=44	=44	=44	=44
1F 1D-	1DD-	1d- 1A-;	.	1r;	.	.	1r;	.	.	1r;	.	.	1r;	.	.
*v	*v	*	*	*	*	*	*	*	*	*	*	*	*	*	*
==	==	==	==	==	==	==	==	==	==	==	==	==	==	==
*-	*-	*-	*-	*-	*-	*-	*-	*-	*-	*-	*-	*-	*-	*-
!!!system-decoration: [(s1,s2,s3,s4)][(s5,s6)]
!!!RDF**kern: > = above
!!!RDF**kern: < = below
!!!RDF**dynam: > = "dim", fontstyle= "bold-italic"
!!!RDF**dynam: < = "cresc", fontstyle= "bold-italic"
!!!RDF**kern: | = vertical stroke
!!!RDF**kern: N = linked
!!!RDF**kern: i = editorial accidental
!!!EED: Wojciech Jakubiak-Danek
!!!EEV: 2021-07-10
!!!ENC: Marcin Jachim
!!!END: 2021-07-07
!!!YEC: Copyright 2022 Narodowy Instytut Fryderyka Chopina (https://polishscores.org)
!!!YEM: License CC-BY-4.0 (https://creativecommons.org/licenses/by/4.0)
